icons/category/icon_category-entertainment_m_white.svg

<svg width="24" height="24" viewBox="0 0 24 24" xmlns="http://www.w3.org/2000/svg"><g fill="none" fill-rule="evenodd"><path d="M0 0h24v24H0z"/><path d="M17.5 5c-.103 0-.202.011-.304.016C16.017 2.52 13.615 1 10.5 1 6.014 1 3 4.147 3 8.833c0 4.689 3.719 8.733 6.986 9.128-.144 2.843-1.652 2.919-3.703 3.015-1.736.08-3.704.171-4.616 2.33l.922.389c.666-1.578 2.091-1.644 3.74-1.72 2.001-.093 4.466-.219 4.654-4.011 1.112-.126 2.277-.672 3.333-1.531.813.802 1.733 1.33 2.597 1.501-.156.447-.512.704-1.061 1.047C15.026 19.495 14 20.137 14 22h1c0-1.31.609-1.689 1.38-2.172.61-.381 1.348-.849 1.563-1.863C20.321 17.616 23 14.548 23 11c0-3.589-2.21-6-5.5-6zm-7 12C7.943 17 4 13.493 4 8.833 4 4.682 6.552 2 10.5 2S17 4.682 17 8.833C17 13.493 13.057 17 10.5 17zm7 0c-.74 0-1.648-.466-2.447-1.24C16.744 14.058 18 11.555 18 8.833a9.362 9.362 0 0 0-.422-2.826C20.265 6.046 22 7.993 22 11c0 3.312-2.723 6-4.5 6z" fill="#FFF"/><path d="M10.766 5.104c.144.066.369.148.612.265.498.221 1.018.572 1.393.999.078.124.192.218.262.352.077.126.161.25.228.388.14.266.27.546.367.807.108.255.19.489.255.655.067.165.117.263.117.263l.031.06a.529.529 0 0 0 .969-.06s.04-.111.09-.311c.051-.2.119-.49.115-.854.013-.182.007-.38-.031-.592a2.656 2.656 0 0 0-.147-.669 2.838 2.838 0 0 0-.299-.699 3.468 3.468 0 0 0-.466-.66 4.368 4.368 0 0 0-.609-.541 4.07 4.07 0 0 0-.679-.374 3.707 3.707 0 0 0-1.274-.284 3.713 3.713 0 0 0-.891.065c-.199.047-.297.086-.297.086l-.036.015a.528.528 0 0 0 .012.985l.278.104z" fill="#FFF" opacity=".3"/></g></svg>

<?xml version="1.0" encoding="UTF-8"?>
<svg width="24px" height="24px" viewBox="0 0 24 24" version="1.1" xmlns="http://www.w3.org/2000/svg" xmlns:xlink="http://www.w3.org/1999/xlink">
    <!-- Generator: Sketch 48.2 (47327) - http://www.bohemiancoding.com/sketch -->
    <title>icon_category-holiday_m_white</title>
    <desc>Created with Sketch.</desc>
    <defs></defs>
    <g id="mobile" stroke="none" stroke-width="1" fill="none" fill-rule="evenodd" transform="translate(-1704.000000, -462.000000)">
        <g id="Headings" transform="translate(64.000000, 77.000000)">
            <g id="icon_category_holiday__m__white" transform="translate(1640.000000, 385.000000)">
                <g id="ungroup">
                    <rect id="Rectangle-path" x="0" y="0" width="24" height="24"></rect>
                    <g id="a1" opacity="0.4"></g>
                    <path d="M17.5,5 C17.397,5 17.298,5.011 17.196,5.016 C16.017,2.52 13.615,1 10.5,1 C6.014,1 3,4.147 3,8.833 C3,13.522 6.719,17.566 9.986,17.961 C9.842,20.804 8.334,20.88 6.283,20.976 C4.547,21.056 2.579,21.147 1.667,23.306 L2.589,23.695 C3.255,22.117 4.68,22.051 6.329,21.975 C8.33,21.882 10.795,21.756 10.983,17.964 C12.095,17.838 13.26,17.292 14.316,16.433 C15.129,17.235 16.049,17.763 16.913,17.934 C16.757,18.381 16.401,18.638 15.852,18.981 C15.026,19.495 14,20.137 14,22 L15,22 C15,20.69 15.609,20.311 16.38,19.828 C16.99,19.447 17.728,18.979 17.943,17.965 C20.321,17.616 23,14.548 23,11 C23,7.411 20.79,5 17.5,5 L17.5,5 Z M10.5,17 C7.943,17 4,13.493 4,8.833 C4,4.682 6.552,2 10.5,2 C14.448,2 17,4.682 17,8.833 C17,13.493 13.057,17 10.5,17 L10.5,17 Z M17.5,17 C16.76,17 15.852,16.534 15.053,15.76 C16.744,14.058 18,11.555 18,8.833 C18,7.81 17.849,6.867 17.578,6.007 C20.265,6.046 22,7.993 22,11 C22,14.312 19.277,17 17.5,17 L17.5,17 Z" id="Shape" fill="#FFFFFF"></path>
                    <path d="M10.766,5.104 C10.91,5.17 11.135,5.252 11.378,5.369 C11.876,5.59 12.396,5.941 12.771,6.368 C12.849,6.492 12.963,6.586 13.033,6.72 C13.11,6.846 13.194,6.97 13.261,7.108 C13.401,7.374 13.531,7.654 13.628,7.915 C13.736,8.17 13.818,8.404 13.883,8.57 C13.95,8.735 14,8.833 14,8.833 L14.031,8.893 C14.09,9.008 14.191,9.102 14.321,9.149 C14.596,9.25 14.9,9.108 15,8.833 C15,8.833 15.04,8.722 15.09,8.522 C15.141,8.322 15.209,8.032 15.205,7.668 C15.218,7.486 15.212,7.288 15.174,7.076 C15.152,6.862 15.113,6.637 15.027,6.407 C14.965,6.173 14.862,5.937 14.728,5.708 C14.607,5.477 14.441,5.252 14.262,5.048 C14.07,4.851 13.873,4.661 13.653,4.507 C13.435,4.351 13.198,4.236 12.974,4.133 C12.516,3.936 12.07,3.869 11.7,3.849 C11.329,3.827 11.029,3.876 10.809,3.914 C10.61,3.961 10.512,4 10.512,4 L10.476,4.015 C10.343,4.069 10.233,4.176 10.179,4.32 C10.076,4.594 10.215,4.898 10.488,5 C10.488,5 10.589,5.038 10.766,5.104 L10.766,5.104 Z" id="Shape" fill="#FFFFFF" opacity="0.3"></path>
                </g>
            </g>
        </g>
    </g>
</svg>
